X:260
T:
R:polska
S:Meddelad av skolläraren S. P. Dalström i Hejde.
O:Gotland, Hejde
M:3/4
L:1/16
K:F
F2f2 f2ag fefd|d2c2 cdc=B cA_Bc|d2B,2B,2d2 edcB|c2A,2A,2c2 dcBA|B2G,2G,2B2 cBAG|
F2C2C2F2 F4::c=Bcd c2C2C2c2|c=Bcd c2C2C2c2|c=Bcd c2C2C2e2|f2a2 gfed c4|
d2B,2B,2d2 edcB|c2A,2A,2c2 dcBA|B2G,2G,2B2 cBAG|F2C2C2F2 F4:|

